X:1
T:The Lord of the Harvest
T:Grant Colfax Tullar
T:The Lord of the Harvest
T:Public Domain
T:Public Domain
T:Public Domain
C:Grant Colfax Tullar
Z:Public Domain
%%score ( 1 2 ) ( 3 4 )
L:1/8
M:6/8
K:Ab
V:1 treble 
V:2 treble 
V:3 bass 
V:4 bass 
V:1
 [CE] | [CE][DF][DG] [EA][EB][Ec] | [Fd]3 [DF]2 [FB] | [FB][EA][EG] [EG][DF][DF] | %4
w: 1.~The|Lord of the har- vest is|com- ing, We|know not the day it will|
w: 2.~The|Lord of the har- vest is|com- ing, The|world shall ac- know- ledge His|
w: 3.~The|Lord of the har- vest is|com- ing, “Be|rea- dy,” He bids thee to|
 [CE]3- [CE]2 [CE] | [CE][DF][DG] [EA][EB][Ec] | [Fd]3 [DF]2 [DF] | [CE][EA][EG] [Ec][Ec]>[DB] | %8
w: be * When|He shall ap- pear to His|peo- ple, The|hour we His glo- ry shall|
w: might * When|He shall de- scend with His|an- gels, His|an- gels of glo- ry and|
w: wait, * For|oh, in the clouds we shall|see Him, If|ear- ly He com- eth, or|
 [CA]3- [CA]2 [FA] | [FA][=EG][FA] [Ac][GB][FA] | [=EG]3 C2 C | .F.G.A .B.A.B | %12
w: see. * Oh|soul, are you rea- dy to|meet Him, His|you joy- ful- ly yield, When|
w: light. * A|mes- sage of joy to His|faith- ful, But|the faith- less be found? When|
w: late. * Pre-|pare, nor de- lay, bid Him|wel- come, So|dear face thou shalt see, The|
 ([=E-c]3 [Ed]2) [DE] | [CE][DF][DG] [EA][EB][Ec] | [Fd]3 [DF]2 [DF] | [CE][EA][EG] [Ec][Ec]>[DB] | %16
w: beau- * ty|To earth, to His great har-|vest field? *||
w: peo- * ple|His voice through the world shall|re- sound. *||
w: sure- * ly,|A mes- sage He’ll bring un-|to thee. *||
 [CA]3- [CA]2 ||"^Refrain" [CE] | EEE [Ec][EB][EA] | EEE EEE | GGG [Ed][Ec][EB] | EEE [Ec]2 [Ec] | %22
w: ||||||
w: ||||||
w: ||||||
 [Ee][Ee][Ee] [Ee][Ed][Ec] | [Fd]3 [Fc]2 [FB] | [EA][EA][EA] [DG][DF][DG] | [CA]3- [CA]2 |] %26
w: ||||
w: ||||
w: ||||
V:2
 x | x6 | x6 | x6 | x6 | x6 | x6 | x6 | x6 | x6 | x3 C2 C | FGA BAB | x6 | x6 | x6 | x6 | x5 || x | %18
w: ||||||||||own can|Je- sus shall come in His|||||||
w: ||||||||||where will|Je- sus shall come to His|||||||
w: ||||||||||soon His|Sav- ior is com- ing so|||||||
 c3- x3 | A3 G2 E | d3- x3 | c3- x3 | x6 | x6 | x6 | x5 |] %26
w: ||||||||
w: ||||||||
w: ||||||||
V:3
 [A,,A,] | [A,,A,][D,A,][B,,E,] [C,A,][E,G,]A, | [D,A,]3 [D,A,]2 [B,,D] | %3
w: ~|~ ~ ~ ~ ~ ~|~ ~ ~|
 [B,,D][E,C][E,B,] [E,B,][E,G,][E,G,] | [A,,A,]3- [A,,A,]2 [A,,A,] | %5
w: ~ ~ ~ ~ ~ ~|~ * ~|
 [A,,A,][D,A,][B,,E,] [C,A,][E,G,]A, | [D,A,]3 [D,A,]2 [D,A,] | %7
w: ~ ~ ~ ~ ~ ~|~ ~ ~|
 [E,A,][E,C][E,B,] [E,A,][E,A,]>[E,G,] | [A,,E,A,]3- [A,,E,A,]2 [C,C] | %9
w: ~ ~ ~ ~ ~ ~|~ * ~|
 [C,C][C,C][C,C] [C,C][C,C][C,C] | [C,C]3 C,2 C, | .F,.G,.A, .B,.A,.B, | %12
w: ~ ~ ~ ~ ~ ~|~ ~ ~|~ ~ ~ ~ ~ ~|
 ([C,G,-]3 [B,,G,]2) [E,G,] | [A,,A,][D,A,][B,,E,] [C,A,][E,G,]A, | [D,A,]3 [D,A,]2 [D,A,] | %15
w: ~ * ~|~ ~ ~ ~ ~ ~|Lord of the|
 [E,A,][E,C][E,B,] [E,A,][E,A,]>[E,G,] | [A,,E,A,]3- [A,,E,A,]2 || A, | %18
w: har- vest is com- ing, is|com- *|ing|
 [A,C][A,C][A,C] [A,C][A,D][A,C] | [E,C][E,C][E,C] [E,B,][E,B,][E,G,] | %20
w: know not the day and we|know not the hour, When He|
 [E,B,][E,B,][E,B,] [E,B,][E,A,][E,G,] | A,[E,A,][C,A,] [A,,A,]2 [A,,A,] | %22
w: shall ap- pear in His glo-|ry, His might and His|
 [C,A,][C,A,][C,A,] [C,A,][B,,G,][A,,A,] | [D,A,]3 [D,A,]2 [D,D] | %24
w: der- ful power. * * *||
 [E,C][E,C][E,C] [E,B,][E,A,][E,B,] | [A,,A,]3- [A,,A,]2 |] %26
w: ||
V:4
 x | x5 A, | x6 | x6 | x6 | x5 A, | x6 | x6 | x6 | x6 | x3 C,2 C, | F,G,A, B,A,B, | x6 | x5 A, | %14
w: |~||||~|||||~ ~|~ ~ ~ ~ ~ ~||The|
 x6 | x6 | x5 || A, | x6 | x6 | x6 | A, x5 | x6 | x6 | x6 | x5 |] %26
w: |||We||||won-|||||

